_build/components/mobile-audio-ui/_text-super-scrubber.svg

<svg viewBox="0 0 241 79" xmlns="http://www.w3.org/2000/svg">
    <path d="M19.688 35.012c10.948 0 15.364-4.646 15.364-11.454 0-8.51-9.2-9.936-15.456-10.856-4.646-.69-5.75-1.426-5.75-2.438 0-.92 1.104-1.38 3.128-1.38 3.174 0 6.9 1.564 9.108 4.002l7.59-6.026C29.394 2.858 23.828.926 17.158.926 9.384.926 2.3 4.33 2.3 11.552c0 5.658 4.048 8.97 14.628 10.534 6.21.92 6.578 1.564 6.578 2.76 0 1.564-2.208 1.932-4.232 1.932-2.76 0-7.038-1.15-8.28-4.876l-10.856 2.3c1.886 6.256 8.05 10.81 19.55 10.81zm28.382-.46c2.852 0 5.52-.598 7.682-2.162V34h9.568V11.322h-9.568v9.936c0 3.312-.644 5.98-4.83 5.98-2.622 0-4.14-1.288-4.14-3.496v-12.42h-9.568v14.122c0 5.658 3.956 9.108 10.856 9.108zm30.452 8.832V32.16c1.426 1.334 4.37 2.392 6.762 2.392 8.096 0 13.294-4.738 13.294-11.776 0-7.268-5.29-12.006-13.754-12.006-2.346 0-4.462.644-6.302 1.886v-1.334h-9.614v32.062h9.614zm5.244-16.008c-3.174 0-5.244-1.886-5.244-4.646s2.07-4.646 5.244-4.646c3.128 0 5.244 1.932 5.244 4.646s-2.116 4.646-5.244 4.646zm31.786 7.176c3.496 0 7.36-.644 11.27-1.886l-3.45-6.394c-2.024.782-5.612 1.426-7.82 1.426-2.76 0-4.508-.69-5.198-1.978h17.756c.138-1.242.184-1.886.184-2.3 0-8.142-5.52-12.65-13.8-12.65-8.372 0-14.26 5.014-14.26 12.006 0 7.084 6.026 11.776 15.318 11.776zm2.806-15.088H110.4c.552-1.38 2.3-2.438 4.278-2.438 1.702 0 3.358.828 3.68 2.438zM140.576 34V23.696c0-2.99 1.334-4.692 4.554-4.692 1.15 0 2.806.414 3.68.92l4.646-7.452c-2.208-1.242-3.91-1.702-6.532-1.702-2.484 0-4.738 1.012-6.256 2.53v-1.978h-9.706V34h9.614zM19.688 79.012c10.948 0 15.364-4.646 15.364-11.454 0-8.51-9.2-9.936-15.456-10.856-4.646-.69-5.75-1.426-5.75-2.438 0-.92 1.104-1.38 3.128-1.38 3.174 0 6.9 1.564 9.108 4.002l7.59-6.026c-4.278-4.002-9.844-5.934-16.514-5.934C9.384 44.926 2.3 48.33 2.3 55.552c0 5.658 4.048 8.97 14.628 10.534 6.21.92 6.578 1.564 6.578 2.76 0 1.564-2.208 1.932-4.232 1.932-2.76 0-7.038-1.15-8.28-4.876l-10.856 2.3c1.886 6.256 8.05 10.81 19.55 10.81zm31.786-.46c6.67 0 11.638-2.53 13.708-7.176L56.58 68.34c-.552 1.794-2.576 2.898-5.198 2.898-3.036 0-5.336-1.656-5.336-4.508 0-2.852 2.208-4.646 5.382-4.646 2.806 0 4.462 1.38 5.244 2.852l8.786-3.036c-2.668-4.738-6.808-7.13-14.03-7.13-9.2 0-14.904 4.784-14.904 11.96 0 6.9 5.704 11.822 14.95 11.822zM77.51 78V67.696c0-2.99 1.334-4.692 4.554-4.692 1.15 0 2.806.414 3.68.92l4.646-7.452c-2.208-1.242-3.91-1.702-6.532-1.702-2.484 0-4.738 1.012-6.256 2.53v-1.978h-9.706V78h9.614zm25.392.552c2.852 0 5.52-.598 7.682-2.162V78h9.568V55.322h-9.568v9.936c0 3.312-.644 5.98-4.83 5.98-2.622 0-4.14-1.288-4.14-3.496v-12.42h-9.568v14.122c0 5.658 3.956 9.108 10.856 9.108zm36.754 0c8.464 0 13.754-4.738 13.754-12.006 0-7.038-5.198-11.776-13.294-11.776-2.392 0-5.336 1.058-6.762 2.392V45.938h-9.614V78h9.614v-1.334c1.84 1.242 3.956 1.886 6.302 1.886zm-1.058-7.314c-3.174 0-5.244-1.886-5.244-4.646s2.07-4.646 5.244-4.646c3.128 0 5.244 1.932 5.244 4.646s-2.116 4.646-5.244 4.646zm33.396 7.314c8.464 0 13.754-4.738 13.754-12.006 0-7.038-5.198-11.776-13.294-11.776-2.392 0-5.336 1.058-6.762 2.392V45.938h-9.614V78h9.614v-1.334c1.84 1.242 3.956 1.886 6.302 1.886zm-1.058-7.314c-3.174 0-5.244-1.886-5.244-4.646s2.07-4.646 5.244-4.646c3.128 0 5.244 1.932 5.244 4.646s-2.116 4.646-5.244 4.646zm31.786 7.314c3.496 0 7.36-.644 11.27-1.886l-3.45-6.394c-2.024.782-5.612 1.426-7.82 1.426-2.76 0-4.508-.69-5.198-1.978h17.756c.138-1.242.184-1.886.184-2.3 0-8.142-5.52-12.65-13.8-12.65-8.372 0-14.26 5.014-14.26 12.006 0 7.084 6.026 11.776 15.318 11.776zm2.806-15.088h-7.958c.552-1.38 2.3-2.438 4.278-2.438 1.702 0 3.358.828 3.68 2.438zM227.746 78V67.696c0-2.99 1.334-4.692 4.554-4.692 1.15 0 2.806.414 3.68.92l4.646-7.452c-2.208-1.242-3.91-1.702-6.532-1.702-2.484 0-4.738 1.012-6.256 2.53v-1.978h-9.706V78h9.614z" fill="#1C1C1E" fill-rule="nonzero"/>
</svg>

<?xml version="1.0" encoding="UTF-8"?>
<svg width="241px" height="79px" viewBox="0 0 241 79" version="1.1" xmlns="http://www.w3.org/2000/svg" xmlns:xlink="http://www.w3.org/1999/xlink">
    <title>_text-super-scrubber</title>
    <g id="_text-super-scrubber" stroke="none" stroke-width="1" fill="none" fill-rule="evenodd">
        <path d="M19.688,35.012 C30.636,35.012 35.052,30.366 35.052,23.558 C35.052,15.048 25.852,13.622 19.596,12.702 C14.95,12.012 13.846,11.276 13.846,10.264 C13.846,9.344 14.95,8.884 16.974,8.884 C20.148,8.884 23.874,10.448 26.082,12.886 L33.672,6.86 C29.394,2.858 23.828,0.926 17.158,0.926 C9.384,0.926 2.3,4.33 2.3,11.552 C2.3,17.21 6.348,20.522 16.928,22.086 C23.138,23.006 23.506,23.65 23.506,24.846 C23.506,26.41 21.298,26.778 19.274,26.778 C16.514,26.778 12.236,25.628 10.994,21.902 L0.138,24.202 C2.024,30.458 8.188,35.012 19.688,35.012 Z M48.07,34.552 C50.922,34.552 53.59,33.954 55.752,32.39 L55.752,34 L65.32,34 L65.32,11.322 L55.752,11.322 L55.752,21.258 C55.752,24.57 55.108,27.238 50.922,27.238 C48.3,27.238 46.782,25.95 46.782,23.742 L46.782,11.322 L37.214,11.322 L37.214,25.444 C37.214,31.102 41.17,34.552 48.07,34.552 Z M78.522,43.384 L78.522,32.16 C79.948,33.494 82.892,34.552 85.284,34.552 C93.38,34.552 98.578,29.814 98.578,22.776 C98.578,15.508 93.288,10.77 84.824,10.77 C82.478,10.77 80.362,11.414 78.522,12.656 L78.522,11.322 L68.908,11.322 L68.908,43.384 L78.522,43.384 Z M83.766,27.376 C80.592,27.376 78.522,25.49 78.522,22.73 C78.522,19.97 80.592,18.084 83.766,18.084 C86.894,18.084 89.01,20.016 89.01,22.73 C89.01,25.444 86.894,27.376 83.766,27.376 Z M115.552,34.552 C119.048,34.552 122.912,33.908 126.822,32.666 L123.372,26.272 C121.348,27.054 117.76,27.698 115.552,27.698 C112.792,27.698 111.044,27.008 110.354,25.72 L128.11,25.72 C128.248,24.478 128.294,23.834 128.294,23.42 C128.294,15.278 122.774,10.77 114.494,10.77 C106.122,10.77 100.234,15.784 100.234,22.776 C100.234,29.86 106.26,34.552 115.552,34.552 Z M118.358,19.464 L110.4,19.464 C110.952,18.084 112.7,17.026 114.678,17.026 C116.38,17.026 118.036,17.854 118.358,19.464 Z M140.576,34 L140.576,23.696 C140.576,20.706 141.91,19.004 145.13,19.004 C146.28,19.004 147.936,19.418 148.81,19.924 L153.456,12.472 C151.248,11.23 149.546,10.77 146.924,10.77 C144.44,10.77 142.186,11.782 140.668,13.3 L140.668,11.322 L130.962,11.322 L130.962,34 L140.576,34 Z M19.688,79.012 C30.636,79.012 35.052,74.366 35.052,67.558 C35.052,59.048 25.852,57.622 19.596,56.702 C14.95,56.012 13.846,55.276 13.846,54.264 C13.846,53.344 14.95,52.884 16.974,52.884 C20.148,52.884 23.874,54.448 26.082,56.886 L33.672,50.86 C29.394,46.858 23.828,44.926 17.158,44.926 C9.384,44.926 2.3,48.33 2.3,55.552 C2.3,61.21 6.348,64.522 16.928,66.086 C23.138,67.006 23.506,67.65 23.506,68.846 C23.506,70.41 21.298,70.778 19.274,70.778 C16.514,70.778 12.236,69.628 10.994,65.902 L0.138,68.202 C2.024,74.458 8.188,79.012 19.688,79.012 Z M51.474,78.552 C58.144,78.552 63.112,76.022 65.182,71.376 L56.58,68.34 C56.028,70.134 54.004,71.238 51.382,71.238 C48.346,71.238 46.046,69.582 46.046,66.73 C46.046,63.878 48.254,62.084 51.428,62.084 C54.234,62.084 55.89,63.464 56.672,64.936 L65.458,61.9 C62.79,57.162 58.65,54.77 51.428,54.77 C42.228,54.77 36.524,59.554 36.524,66.73 C36.524,73.63 42.228,78.552 51.474,78.552 Z M77.51,78 L77.51,67.696 C77.51,64.706 78.844,63.004 82.064,63.004 C83.214,63.004 84.87,63.418 85.744,63.924 L90.39,56.472 C88.182,55.23 86.48,54.77 83.858,54.77 C81.374,54.77 79.12,55.782 77.602,57.3 L77.602,55.322 L67.896,55.322 L67.896,78 L77.51,78 Z M102.902,78.552 C105.754,78.552 108.422,77.954 110.584,76.39 L110.584,78 L120.152,78 L120.152,55.322 L110.584,55.322 L110.584,65.258 C110.584,68.57 109.94,71.238 105.754,71.238 C103.132,71.238 101.614,69.95 101.614,67.742 L101.614,55.322 L92.046,55.322 L92.046,69.444 C92.046,75.102 96.002,78.552 102.902,78.552 Z M139.656,78.552 C148.12,78.552 153.41,73.814 153.41,66.546 C153.41,59.508 148.212,54.77 140.116,54.77 C137.724,54.77 134.78,55.828 133.354,57.162 L133.354,45.938 L123.74,45.938 L123.74,78 L133.354,78 L133.354,76.666 C135.194,77.908 137.31,78.552 139.656,78.552 Z M138.598,71.238 C135.424,71.238 133.354,69.352 133.354,66.592 C133.354,63.832 135.424,61.946 138.598,61.946 C141.726,61.946 143.842,63.878 143.842,66.592 C143.842,69.306 141.726,71.238 138.598,71.238 Z M171.994,78.552 C180.458,78.552 185.748,73.814 185.748,66.546 C185.748,59.508 180.55,54.77 172.454,54.77 C170.062,54.77 167.118,55.828 165.692,57.162 L165.692,45.938 L156.078,45.938 L156.078,78 L165.692,78 L165.692,76.666 C167.532,77.908 169.648,78.552 171.994,78.552 Z M170.936,71.238 C167.762,71.238 165.692,69.352 165.692,66.592 C165.692,63.832 167.762,61.946 170.936,61.946 C174.064,61.946 176.18,63.878 176.18,66.592 C176.18,69.306 174.064,71.238 170.936,71.238 Z M202.722,78.552 C206.218,78.552 210.082,77.908 213.992,76.666 L210.542,70.272 C208.518,71.054 204.93,71.698 202.722,71.698 C199.962,71.698 198.214,71.008 197.524,69.72 L215.28,69.72 C215.418,68.478 215.464,67.834 215.464,67.42 C215.464,59.278 209.944,54.77 201.664,54.77 C193.292,54.77 187.404,59.784 187.404,66.776 C187.404,73.86 193.43,78.552 202.722,78.552 Z M205.528,63.464 L197.57,63.464 C198.122,62.084 199.87,61.026 201.848,61.026 C203.55,61.026 205.206,61.854 205.528,63.464 Z M227.746,78 L227.746,67.696 C227.746,64.706 229.08,63.004 232.3,63.004 C233.45,63.004 235.106,63.418 235.98,63.924 L240.626,56.472 C238.418,55.23 236.716,54.77 234.094,54.77 C231.61,54.77 229.356,55.782 227.838,57.3 L227.838,55.322 L218.132,55.322 L218.132,78 L227.746,78 Z" id="SuperScrubber" fill="#1C1C1E" fill-rule="nonzero"></path>
    </g>
</svg>
